X: 1
T: Murder Of McBriars
Z: Accordionstu
S: https://thesession.org/tunes/12054#setting12054
R: reel
M: 4/4
L: 1/8
K: Dmaj
AG |F2 D2 F2 A2 | d4 c2 cd | e2 A2 c2 cB | A6 AG |
F2 D2 F2 A2 | d4 B2 cd | c2 A2 B2 ^G2 | A6 AG |
F2 D2 F2 A2 | d4 c2 cd | e2 A2 c2 cB | A6 AG |
F2 D2 E2 F2 | G2 G2 A2 AF | G2 F2 D2 DE | D6 ||
